X:1
T:Komm, O Komm, Du Geist Des Lebens
T:Komm, O Komm, Du Geist Des Lebens
T:Public Domain
Z:Public Domain
%%score ( 1 2 ) ( 3 4 )
L:1/8
Q:1/4=110
M:4/4
K:G
V:1 treble nm="Staff"
V:2 treble 
V:3 bass nm="Staff-1"
V:4 bass 
V:1
 [DB]2 [EG]2 x2 | [FA]2 [Dd]2 [EG]2 (A G) | [DF]2 D2 [CE]2 [DF]2 | [DG]2 [B,G]2 [EA]2 [Dd]2 | %4
 [DB]4 || [DB]2 [EG]2 x2 | [DA]2 [Fd]2 [Ed]2 [E^c]2 | [Fd]4 [Ge]2 [Gd]2 | c2 [GB]2 [GA]2 [FA]2 | %9
 [DG]4 |] %10
V:2
 x6 | x6 ^C2 | x2 D2 x4 | x8 | x4 || x6 | x8 | x8 | (E F) x6 | x4 |] %10
V:3
 G,2 [E,B,]2 x2 | [D,D]2 [F,A,]2 [E,B,]2 [A,,A,]2 | [D,A,]2 [D,F,]2 [A,,A,]2 [D,A,]2 | %3
 [B,,G,]2 [E,G,]2 [C,G,]2 [D,F,]2 | [G,,G,]4 || G,2 [E,B,]2 x2 | %6
 [F,A,]2 [D,A,]2 [G,,B,]2 [A,,A,]2 | [D,A,]4 [C,C]2 [G,B,]2 | [A,C]2 [G,D]2 [C,E]2 [D,D]2 | %9
 [G,,B,]4 |] %10
V:4
 x4 G,2 | x8 | x8 | x8 | x4 || x4 G,2 | x8 | x8 | x8 | x4 |] %10

